src/pos-icons/alarm-plus.svg

<svg height="24" viewBox="0 0 24 24" width="24" xmlns="http://www.w3.org/2000/svg"><path d="m13 9h-2v3h-3v2h3v3h2v-3h3v-2h-3m-1 8a7 7 0 0 1 -7-7 7 7 0 0 1 7-7 7 7 0 0 1 7 7 7 7 0 0 1 -7 7m0-16a9 9 0 0 0 -9 9 9 9 0 0 0 9 9 9 9 0 0 0 9-9 9 9 0 0 0 -9-9m10 1.72-4.6-3.86-1.29 1.53 4.6 3.86m-12.83-3.86-1.28-1.53-4.6 3.85 1.29 1.53z"/></svg>

<?xml version="1.0" encoding="UTF-8"?><!DOCTYPE svg PUBLIC "-//W3C//DTD SVG 1.1//EN" "http://www.w3.org/Graphics/SVG/1.1/DTD/svg11.dtd"><svg xmlns="http://www.w3.org/2000/svg" xmlns:xlink="http://www.w3.org/1999/xlink" version="1.1" id="mdi-alarm-plus" width="24" height="24" viewBox="0 0 24 24"><path d="M13,9H11V12H8V14H11V17H13V14H16V12H13M12,20A7,7 0 0,1 5,13A7,7 0 0,1 12,6A7,7 0 0,1 19,13A7,7 0 0,1 12,20M12,4A9,9 0 0,0 3,13A9,9 0 0,0 12,22A9,9 0 0,0 21,13A9,9 0 0,0 12,4M22,5.72L17.4,1.86L16.11,3.39L20.71,7.25M7.88,3.39L6.6,1.86L2,5.71L3.29,7.24L7.88,3.39Z" /></svg>
